packages/bezier-icons/icons/notification-off.svg

<svg width="24" height="24" viewBox="0 0 24 24" fill="none" xmlns="http://www.w3.org/2000/svg">
<path fill-rule="evenodd" clip-rule="evenodd" d="M17.385 13.605L18.879 16.003H17.801L8.02796 6.23004C8.72296 4.91304 10.09 4.00304 11.68 4.00304C13.965 4.00304 15.825 5.86204 15.825 8.14804C15.825 10.078 16.364 11.965 17.385 13.605ZM4.25494 2.45705C3.86448 2.06659 3.23141 2.06659 2.84094 2.45705C2.45048 2.84752 2.45048 3.48059 2.84094 3.87105L19.8116 20.8417C20.2022 21.2323 20.8356 21.2321 21.2261 20.8414C21.6165 20.4508 21.6163 19.8176 21.2258 19.4272L19.8009 18.0031H20.4999C20.8999 18.0031 21.2679 17.7861 21.4619 17.4361C21.6549 17.0871 21.6449 16.6601 21.4329 16.3211L19.0829 12.5471C18.2599 11.2261 17.8249 9.70405 17.8249 8.14805C17.8249 4.75905 15.0679 2.00305 11.6799 2.00305C9.54194 2.00305 7.66494 3.10605 6.56594 4.76805L4.25494 2.45705ZM13.6797 18.003C13.6797 19.106 12.7827 20.003 11.6797 20.003C10.5767 20.003 9.67974 19.106 9.67974 18.003H13.6797ZM4.27675 12.5471L1.92675 16.3211C1.71575 16.6591 1.70375 17.0861 1.89775 17.4361C2.09175 17.7861 2.45975 18.0031 2.85975 18.0031H7.67975C7.67975 20.2091 9.47375 22.0031 11.6798 22.0031C13.8478 22.0031 15.6088 20.2671 15.6688 18.1131L13.5588 16.0031H4.48075L5.97375 13.6051C6.69575 12.4471 7.16275 11.1621 7.38375 9.82805L5.54375 7.98705C5.54292 8.00952 5.54122 8.03165 5.53952 8.05378C5.53714 8.08485 5.53475 8.11594 5.53475 8.14805C5.53475 9.70505 5.09975 11.2261 4.27675 12.5471Z" fill="#313234"/>
</svg>

<svg xmlns="http://www.w3.org/2000/svg" width="24" height="24" fill="none" viewBox="0 0 24 24"><path fill="#313234" fill-rule="evenodd" d="m17.385 13.605 1.494 2.398h-1.078L8.028 6.23c.695-1.317 2.062-2.227 3.652-2.227a4.15 4.15 0 0 1 4.145 4.145c0 1.93.539 3.817 1.56 5.457M4.255 2.457A1 1 0 0 0 2.84 3.871l16.97 16.97a1 1 0 0 0 1.415-1.414L19.8 18.003h.699a1.1 1.1 0 0 0 .933-1.682l-2.35-3.774a8.3 8.3 0 0 1-1.258-4.399 6.15 6.15 0 0 0-6.145-6.145 6.13 6.13 0 0 0-5.114 2.765zm9.425 15.546c0 1.103-.897 2-2 2s-2-.897-2-2zm-9.403-5.456-2.35 3.774a1.1 1.1 0 0 0 .933 1.682h4.82c0 2.206 1.794 4 4 4a4 4 0 0 0 3.989-3.89l-2.11-2.11H4.48l1.493-2.398a10.3 10.3 0 0 0 1.41-3.777l-1.84-1.84-.004.066q-.005.046-.005.094a8.3 8.3 0 0 1-1.258 4.4" clip-rule="evenodd"/></svg>
